docs/.gitbook/assets/icon-receipt-16@dark.svg

<svg width="32" height="32" viewBox="0 0 16 16" fill="none" xmlns="http://www.w3.org/2000/svg">
<rect x="0" y="0" width="16" height="16" fill="#181c1f"/>
<path fill-rule="evenodd" clip-rule="evenodd" d="M2 1.75C2 1.33579 2.33579 1 2.75 1H13.25C13.6642 1 14 1.33579 14 1.75V14.25C14 14.5297 13.8444 14.7861 13.5964 14.9152C13.3483 15.0444 13.049 15.0248 12.8199 14.8644L12.508 14.6461C11.4317 13.8927 10.0077 13.8613 8.89936 14.5667L8.40266 14.8827C8.15698 15.0391 7.84302 15.0391 7.59734 14.8827L7.10064 14.5667C5.99229 13.8613 4.5683 13.8927 3.49204 14.6461L3.1801 14.8644C2.95099 15.0248 2.65169 15.0444 2.40364 14.9152C2.15559 14.7861 2 14.5297 2 14.25V1.75ZM3.5 2.5V12.9359C4.91979 12.3331 6.5698 12.4509 7.90596 13.3012L8 13.361L8.09404 13.3012C9.4302 12.4509 11.0802 12.3331 12.5 12.9359V2.5H3.5ZM5 5.25C5 4.83579 5.33579 4.5 5.75 4.5H10.25C10.6642 4.5 11 4.83579 11 5.25C11 5.66421 10.6642 6 10.25 6H5.75C5.33579 6 5 5.66421 5 5.25ZM5 8.25C5 7.83579 5.33579 7.5 5.75 7.5H10.25C10.6642 7.5 11 7.83579 11 8.25C11 8.66421 10.6642 9 10.25 9H5.75C5.33579 9 5 8.66421 5 8.25Z" fill="#fff"/>
</svg>

<svg xmlns="http://www.w3.org/2000/svg" width="32" height="32" fill="none" viewBox="0 0 16 16"><path fill="#181c1f" d="M0 0h16v16H0z"/><path fill="#fff" fill-rule="evenodd" d="M2 1.75A.75.75 0 0 1 2.75 1h10.5a.75.75 0 0 1 .75.75v12.5a.75.75 0 0 1-1.18.614l-.312-.218a3.25 3.25 0 0 0-3.609-.08l-.496.317a.75.75 0 0 1-.806 0l-.496-.316a3.25 3.25 0 0 0-3.609.08l-.312.217A.75.75 0 0 1 2 14.25zm1.5.75v10.436a4.75 4.75 0 0 1 4.406.365l.094.06.094-.06a4.75 4.75 0 0 1 4.406-.365V2.5zM5 5.25a.75.75 0 0 1 .75-.75h4.5a.75.75 0 0 1 0 1.5h-4.5A.75.75 0 0 1 5 5.25m0 3a.75.75 0 0 1 .75-.75h4.5a.75.75 0 0 1 0 1.5h-4.5A.75.75 0 0 1 5 8.25" clip-rule="evenodd"/></svg>
